server/website/public/icons/base/image.svg

<svg width="48" height="48" viewBox="0 0 48 48" fill="none" xmlns="http://www.w3.org/2000/svg">
<g clip-path="url(#clip0_1395_23095)">
<path d="M0.00390625 9C0.00390625 7.4087 0.636047 5.88258 1.76127 4.75736C2.88648 3.63214 4.41261 3 6.00391 3H42.0039C43.5952 3 45.1213 3.63214 46.2465 4.75736C47.3718 5.88258 48.0039 7.4087 48.0039 9V39C48.0039 40.5913 47.3718 42.1174 46.2465 43.2426C45.1213 44.3679 43.5952 45 42.0039 45H6.00391C4.41261 45 2.88648 44.3679 1.76127 43.2426C0.636047 42.1174 0.00390625 40.5913 0.00390625 39V9ZM3.00391 36V39C3.00391 39.7957 3.31998 40.5587 3.88259 41.1213C4.4452 41.6839 5.20826 42 6.00391 42H42.0039C42.7996 42 43.5626 41.6839 44.1252 41.1213C44.6878 40.5587 45.0039 39.7957 45.0039 39V28.5L33.6729 22.659C33.3916 22.5181 33.073 22.4692 32.7624 22.5193C32.4518 22.5693 32.1647 22.7158 31.9419 22.938L20.8119 34.068L12.8319 28.752C12.5438 28.5602 12.1982 28.4739 11.8537 28.5078C11.5093 28.5417 11.1871 28.6937 10.9419 28.938L3.00391 36ZM18.0039 16.5C18.0039 15.3065 17.5298 14.1619 16.6859 13.318C15.842 12.4741 14.6974 12 13.5039 12C12.3104 12 11.1658 12.4741 10.3219 13.318C9.47801 14.1619 9.00391 15.3065 9.00391 16.5C9.00391 17.6935 9.47801 18.8381 10.3219 19.682C11.1658 20.5259 12.3104 21 13.5039 21C14.6974 21 15.842 20.5259 16.6859 19.682C17.5298 18.8381 18.0039 17.6935 18.0039 16.5Z" fill="black"/>
</g>
<defs>
<clipPath id="clip0_1395_23095">
<rect width="48" height="48" fill="white"/>
</clipPath>
</defs>
</svg>

<svg width="48" height="48" fill="none" xmlns="http://www.w3.org/2000/svg"><g clip-path="url(#prefix__clip0_1395_23095)"><path d="M.004 9a6 6 0 016-6h36a6 6 0 016 6v30a6 6 0 01-6 6h-36a6 6 0 01-6-6V9zm3 27v3a3 3 0 003 3h36a3 3 0 003-3V28.5l-11.331-5.841a1.5 1.5 0 00-1.731.279l-11.13 11.13-7.98-5.316a1.5 1.5 0 00-1.89.186L3.004 36zm15-19.5a4.5 4.5 0 10-9 0 4.5 4.5 0 009 0z" fill="#000"/></g><defs><clipPath id="prefix__clip0_1395_23095"><path fill="#fff" d="M0 0h48v48H0z"/></clipPath></defs></svg>
